picto/bike-hire-left-de-framed.svg

<svg class="color-immutable" width="30" height="30" viewBox="0 0 30 30" fill="none" xmlns="http://www.w3.org/2000/svg"><path d="M0 30V0H30V30H0Z" fill="#2D327D"/><path d="M25.5 3C26.325 3 27 3.675 27 4.5V25.5C27 26.325 26.325 27 25.5 27H4.5C3.675 27 3 26.325 3 25.5V4.5C3 3.675 3.675 3 4.5 3H25.5ZM25.5 2.625H4.5C3.46613 2.625 2.625 3.46613 2.625 4.5V25.5C2.625 26.5339 3.46613 27.375 4.5 27.375H25.5C26.5339 27.375 27.375 26.5339 27.375 25.5V4.5C27.375 3.46613 26.5339 2.625 25.5 2.625Z" fill="white"/><path d="M8.01333 6L7.2658 8.24865H6.7075L5.9707 6H6.48445L6.99048 7.6842L7.50423 6H8.01333Z" fill="white"/><path d="M9.57601 7.72575C9.55246 7.8201 9.50985 7.90875 9.44835 7.99185C9.30068 8.19383 9.08843 8.29485 8.81161 8.29485C8.56141 8.29485 8.36093 8.21588 8.21018 8.058C8.13638 7.98113 8.07998 7.88828 8.04098 7.7796C7.9989 7.66373 7.97791 7.54275 7.97791 7.4166C7.97791 7.17255 8.04818 6.9675 8.18866 6.80138C8.34556 6.61575 8.54858 6.52298 8.79773 6.52298C8.99873 6.52298 9.16996 6.585 9.31148 6.70905C9.41303 6.79823 9.48683 6.90825 9.53296 7.03898C9.57908 7.1697 9.60218 7.33403 9.60218 7.53196H8.43173C8.43586 7.614 8.44868 7.68218 8.4702 7.73655C8.53073 7.88318 8.64556 7.95653 8.81476 7.95653C8.89778 7.95653 8.96551 7.9383 9.01778 7.90193C9.07006 7.86555 9.11311 7.80683 9.14701 7.72583H9.57601V7.72575ZM9.14686 7.23203C9.13868 7.15103 9.12023 7.08383 9.09151 7.0305C9.06278 6.97823 9.02206 6.93668 8.96926 6.90593C8.91646 6.87518 8.85878 6.8598 8.79623 6.8598C8.69678 6.8598 8.61473 6.8931 8.55016 6.95978C8.48558 7.02645 8.4471 7.1172 8.4348 7.23203H9.14686Z" fill="white"/><path d="M10.9157 6.54143V6.97366C10.8439 6.96031 10.786 6.95363 10.7419 6.95363C10.5758 6.95363 10.4537 7.02338 10.3758 7.16281C10.3317 7.24073 10.3097 7.37093 10.3097 7.55348V8.24873H9.86365V6.56911H10.2881V6.87518C10.4091 6.64756 10.585 6.53371 10.8157 6.53371C10.8444 6.53371 10.8777 6.53626 10.9157 6.54143Z" fill="white"/><path d="M11.5524 6.57368V6.79673C11.6088 6.71985 11.6647 6.66293 11.72 6.62603C11.8195 6.55733 11.9364 6.52298 12.0707 6.52298C12.2881 6.52298 12.4404 6.61523 12.5275 6.7998C12.6588 6.61523 12.8372 6.52298 13.0628 6.52298C13.2371 6.52298 13.3725 6.57503 13.4689 6.67913C13.5652 6.78323 13.6135 6.93008 13.6135 7.11975V8.24873H13.1674V7.25048C13.1674 7.14278 13.1557 7.06748 13.132 7.02435C13.09 6.94538 13.0141 6.90593 12.9044 6.90593C12.7711 6.90593 12.6783 6.96233 12.626 7.07513C12.6025 7.12538 12.5906 7.21508 12.5906 7.34431V8.24873H12.1461V7.23203C12.1461 7.13258 12.1343 7.0608 12.1107 7.0167C12.0727 6.9429 12.002 6.90593 11.8984 6.90593C11.8348 6.90593 11.7777 6.92183 11.7269 6.95363C11.6761 6.98543 11.638 7.029 11.6123 7.08435C11.5867 7.1397 11.5738 7.22641 11.5738 7.34431V8.24873H11.1278V6.57368H11.5524Z" fill="white"/><path d="M14.4256 6V6.40147H13.9796V6H14.4256ZM14.4256 6.57217V8.24873H13.9796V6.57217H14.4256Z" fill="white"/><path d="M16.2974 7.72575C16.2739 7.8201 16.2313 7.90875 16.1698 7.99185C16.0221 8.19383 15.8099 8.29485 15.533 8.29485C15.2828 8.29485 15.0824 8.21588 14.9316 8.058C14.8578 7.98113 14.8014 7.88828 14.7624 7.7796C14.7204 7.66373 14.6993 7.54275 14.6993 7.4166C14.6993 7.17255 14.7695 6.9675 14.9101 6.80138C15.067 6.61575 15.27 6.52298 15.5192 6.52298C15.7202 6.52298 15.8914 6.585 16.0329 6.70905C16.1345 6.79823 16.2083 6.90825 16.2544 7.03898C16.3005 7.1697 16.3236 7.33403 16.3236 7.53196H15.1532C15.1573 7.614 15.1701 7.68218 15.1916 7.73655C15.2522 7.88318 15.367 7.95653 15.5362 7.95653C15.6192 7.95653 15.6869 7.9383 15.7392 7.90193C15.7915 7.86555 15.8345 7.80683 15.8684 7.72583H16.2974V7.72575ZM15.8683 7.23203C15.8601 7.15103 15.8417 7.08383 15.8129 7.0305C15.7842 6.97823 15.7435 6.93668 15.6907 6.90593C15.6379 6.87518 15.5802 6.8598 15.5177 6.8598C15.4182 6.8598 15.3362 6.8931 15.2716 6.95978C15.207 7.02645 15.1685 7.1172 15.1562 7.23203H15.8683Z" fill="white"/><path d="M17.4649 6.56602V6.88132H17.1311V7.6704C17.1311 7.76475 17.1398 7.82475 17.1573 7.85032C17.183 7.88722 17.2403 7.90567 17.3296 7.90567C17.3645 7.90567 17.4095 7.90312 17.465 7.89795V8.2548C17.3645 8.26605 17.2722 8.27167 17.1881 8.27167C17.061 8.27167 16.9641 8.25735 16.8974 8.22862C16.7939 8.1825 16.7293 8.09842 16.7036 7.9764C16.6924 7.92412 16.6867 7.8159 16.6867 7.65187V6.88132H16.4144V6.56602H16.6867V6.17227H17.1312V6.56602H17.4649Z" fill="white"/><path d="M19.2152 6.56911V8.24873H18.7907V8.00416C18.6625 8.19796 18.483 8.29486 18.2523 8.29486C18.0513 8.29486 17.8996 8.22766 17.7971 8.09333C17.7581 8.04106 17.7302 7.97948 17.7132 7.90876C17.6963 7.83803 17.6879 7.74571 17.6879 7.63193V6.56911H18.1339V7.49348C18.1339 7.58986 18.1367 7.65803 18.1424 7.69808C18.148 7.73806 18.1595 7.77188 18.177 7.79963C18.2242 7.87448 18.3047 7.91191 18.4185 7.91191C18.559 7.91191 18.661 7.84988 18.7246 7.72583C18.7553 7.66531 18.7707 7.55611 18.7707 7.39823V6.56911H19.2152Z" fill="white"/><path d="M19.9812 6.57367V6.80902C20.0334 6.73724 20.0822 6.68444 20.1273 6.65062C20.238 6.56452 20.3713 6.52139 20.5272 6.52139C20.6646 6.52139 20.781 6.55627 20.8763 6.62602C20.9522 6.68137 21.0052 6.75134 21.0354 6.83594C21.0657 6.92054 21.0808 7.03972 21.0808 7.19354V8.24864H20.6363V7.28737C20.6363 7.17974 20.6271 7.10077 20.6086 7.05052C20.5912 7.00642 20.5614 6.97154 20.5194 6.94589C20.4712 6.91822 20.4163 6.90434 20.3548 6.90434C20.2872 6.90434 20.2256 6.92077 20.1702 6.95354C20.1149 6.98639 20.0739 7.03094 20.0472 7.08734C20.0174 7.15094 20.0025 7.24987 20.0025 7.38419V8.24857H19.5565V6.57367H19.9812Z" fill="white"/><path d="M22.9974 6.5691V8.04877C22.9974 8.18002 22.9892 8.28487 22.9728 8.36332C22.9564 8.44177 22.9282 8.51325 22.8882 8.5779C22.759 8.78295 22.5273 8.88555 22.193 8.88555C21.7274 8.88555 21.4727 8.70967 21.4286 8.358H21.8777C21.9084 8.49847 22.0166 8.56867 22.2022 8.56867C22.3437 8.56867 22.4426 8.5287 22.499 8.44867C22.5431 8.38507 22.5652 8.28255 22.5652 8.14102L22.5667 7.93335C22.4519 8.10975 22.2857 8.19787 22.0683 8.19787C21.8581 8.19787 21.6905 8.12407 21.5654 7.9764C21.4382 7.8267 21.3746 7.62472 21.3746 7.3704C21.3746 7.11607 21.4382 6.91207 21.5654 6.75825C21.6977 6.59932 21.8714 6.51982 22.0868 6.51982C22.1985 6.51982 22.2918 6.54082 22.3667 6.5829C22.4415 6.6249 22.5102 6.69517 22.5728 6.79357V6.56902H22.9974V6.5691ZM22.1868 6.88597C22.0617 6.88597 21.9668 6.93825 21.9023 7.04287C21.85 7.12695 21.8238 7.2336 21.8238 7.36282C21.8238 7.52692 21.8618 7.6515 21.9377 7.73655C22.0033 7.81245 22.0889 7.8504 22.1945 7.8504C22.3278 7.8504 22.4278 7.79452 22.4945 7.68277C22.5458 7.59667 22.5713 7.48792 22.5713 7.35667C22.5713 7.1988 22.5319 7.07677 22.4529 6.9906C22.3883 6.92077 22.2996 6.88597 22.1868 6.88597Z" fill="white"/><path d="M16.9847 14.7955L18.7953 15.4287C18.8343 15.4435 18.8772 15.45 18.9191 15.45C19.0443 15.45 19.1604 15.3877 19.2302 15.2839L19.6371 14.6803C19.6704 14.6302 19.6873 14.5717 19.6873 14.5132C19.6873 14.347 19.5534 14.2124 19.388 14.2124H17.0843C16.9178 14.2124 16.7832 14.347 16.7832 14.5132C16.7832 14.6405 16.8649 14.7538 16.9847 14.7955Z" fill="white"/><path d="M10.6493 14.8125H13.275V14.2125H10.6493C10.4839 14.2125 10.35 14.347 10.35 14.5129C10.35 14.678 10.4839 14.8125 10.6493 14.8125Z" fill="white"/><path d="M10.65 15.7878H11.0252C11.1906 15.7878 11.3254 15.6532 11.3254 15.4878C11.3254 15.3217 11.1906 15.187 11.0252 15.187H10.65C10.4846 15.187 10.3507 15.3217 10.3507 15.4878C10.3507 15.6532 10.4846 15.7878 10.65 15.7878Z" fill="white"/><path d="M20.3248 16.6493C19.7404 16.6493 19.1637 16.7886 18.6443 17.0558L17.9243 15.9H12.0745L11.3546 17.0558C10.8353 16.7886 10.2593 16.6493 9.67492 16.6493C7.6461 16.6493 6 18.2954 6 20.325C6 22.3528 7.6461 23.9999 9.67492 23.9999C11.7029 23.9999 13.3491 22.3527 13.3491 20.325C13.3491 19.1608 12.799 18.067 11.8644 17.3725L12.2678 16.7245L14.2335 19.6474C14.0978 19.819 14.0245 20.0308 14.0245 20.2498C14.0245 20.7874 14.4619 21.2248 14.9988 21.2248C15.3778 21.2248 15.7225 21.0047 15.8832 20.6621H16.6655C16.8392 22.5533 18.4259 24 20.3247 24C22.3537 23.9999 24 22.3527 24 20.325C24 18.2954 22.3537 16.6493 20.3248 16.6493ZM12.7499 20.325C12.7499 22.0223 11.3722 23.4001 9.67492 23.4001C7.97767 23.4001 6.59917 22.0223 6.59917 20.325C6.59917 18.6269 7.9776 17.2498 9.67492 17.2498C10.1477 17.2498 10.6131 17.3585 11.0369 17.5674L9.4194 20.1662C9.39075 20.2135 9.375 20.2684 9.375 20.3249C9.375 20.4903 9.50857 20.6249 9.67492 20.6249C9.77902 20.6249 9.87465 20.5709 9.9294 20.4828L11.5468 17.8849C12.305 18.4672 12.7499 19.3687 12.7499 20.325ZM15.2684 19.312C15.1811 19.287 15.0908 19.2749 14.9989 19.2749C14.909 19.2749 14.8188 19.2869 14.7315 19.312L12.8401 16.4997H17.1597L15.2684 19.312ZM16.6589 20.0622H15.9566C15.9269 19.9108 15.8621 19.7679 15.7662 19.6473L17.7312 16.7245L18.1353 17.3725C17.2749 18.0112 16.7362 18.9936 16.6589 20.0622ZM18.4529 17.885L19.8083 20.0622H17.261C17.3344 19.2007 17.7674 18.4105 18.4529 17.885ZM20.3248 23.4001C18.7567 23.4001 17.4403 22.22 17.2674 20.662H19.8287C19.9403 20.8264 20.1261 20.9248 20.3248 20.9248C20.6555 20.9248 20.9239 20.6554 20.9239 20.325C20.9239 19.9935 20.6555 19.7243 20.3248 19.7243C20.3183 19.7243 20.3108 19.7243 20.3054 19.7254L18.9621 17.5675C19.3856 17.3586 19.852 17.2499 20.3248 17.2499C22.022 17.2499 23.3987 18.627 23.3987 20.3251C23.3988 22.0222 22.0221 23.4001 20.3248 23.4001Z" fill="white"/></svg>

<svg class="color-immutable" width="30" height="30" viewBox="0 0 30 30" fill="none" xmlns="http://www.w3.org/2000/svg"><g clip-path="url(#a)"><path d="M0 30V0h30v30H0Z" fill="#2D327D"/><path d="M25.5 3c.825 0 1.5.675 1.5 1.5v21c0 .825-.675 1.5-1.5 1.5h-21c-.825 0-1.5-.675-1.5-1.5v-21C3 3.675 3.675 3 4.5 3h21Zm0-.375h-21A1.877 1.877 0 0 0 2.625 4.5v21c0 1.034.841 1.875 1.875 1.875h21a1.877 1.877 0 0 0 1.875-1.875v-21A1.877 1.877 0 0 0 25.5 2.625Z" fill="#fff"/><path d="m8.013 6-.747 2.249h-.559L5.971 6h.513l.506 1.684L7.504 6h.51ZM9.576 7.726a.75.75 0 0 1-.128.266c-.147.202-.36.303-.636.303-.25 0-.451-.08-.602-.237a.773.773 0 0 1-.169-.278 1.055 1.055 0 0 1-.063-.363c0-.244.07-.45.21-.616a.76.76 0 0 1 .61-.278c.2 0 .372.062.513.186.102.09.176.2.222.33.046.13.07.295.07.493H8.431a.65.65 0 0 0 .038.205c.06.146.176.22.345.22.083 0 .15-.019.203-.055a.39.39 0 0 0 .129-.176h.429Zm-.43-.494a.539.539 0 0 0-.054-.202.338.338 0 0 0-.295-.17c-.1 0-.182.033-.247.1a.446.446 0 0 0-.115.272h.712ZM10.916 6.541v.433a.997.997 0 0 0-.174-.02.39.39 0 0 0-.366.209c-.044.078-.066.208-.066.39v.696h-.446v-1.68h.424v.306c.121-.227.297-.341.528-.341.028 0 .062.002.1.007ZM11.552 6.574v.223a.602.602 0 0 1 .518-.274c.218 0 .37.092.457.277a.623.623 0 0 1 .536-.277c.174 0 .31.052.406.156.096.104.145.251.145.44v1.13h-.447V7.25a.51.51 0 0 0-.035-.226c-.042-.079-.118-.118-.228-.118-.133 0-.226.056-.278.17a.707.707 0 0 0-.035.268v.905h-.445V7.232c0-.1-.012-.171-.035-.215-.038-.074-.109-.111-.213-.111a.316.316 0 0 0-.171.048.3.3 0 0 0-.115.13.656.656 0 0 0-.038.26v.905h-.446V6.574h.424ZM14.426 6v.401h-.446V6h.446Zm0 .572V8.25h-.446V6.572h.446ZM16.297 7.726a.75.75 0 0 1-.127.266c-.148.202-.36.303-.637.303-.25 0-.45-.08-.601-.237a.773.773 0 0 1-.17-.278 1.057 1.057 0 0 1-.063-.363c0-.244.07-.45.211-.616a.76.76 0 0 1 .61-.278c.2 0 .371.062.513.186.101.09.175.2.221.33.046.13.07.295.07.493h-1.17a.65.65 0 0 0 .038.205c.06.146.175.22.344.22.083 0 .15-.019.203-.055a.39.39 0 0 0 .13-.176h.428Zm-.429-.494a.537.537 0 0 0-.055-.202.338.338 0 0 0-.295-.17c-.1 0-.182.033-.246.1a.446.446 0 0 0-.116.272h.712ZM17.465 6.566v.315h-.334v.79c0 .094.009.154.026.18.026.036.083.055.173.055.035 0 .08-.003.135-.008v.357c-.1.011-.193.017-.277.017a.764.764 0 0 1-.29-.043.332.332 0 0 1-.194-.253 1.939 1.939 0 0 1-.017-.324v-.77h-.273v-.316h.273v-.394h.444v.394h.334ZM19.215 6.57v1.679h-.424v-.245a.61.61 0 0 1-.539.29c-.2 0-.352-.066-.455-.2a.5.5 0 0 1-.084-.185 1.23 1.23 0 0 1-.025-.277V6.569h.446v.924c0 .097.003.165.008.205.006.04.018.074.035.102.047.074.128.112.242.112a.32.32 0 0 0 .306-.186c.03-.06.046-.17.046-.328V6.57h.444ZM19.981 6.574v.235a.632.632 0 0 1 .546-.288c.138 0 .254.035.35.105a.438.438 0 0 1 .158.21c.03.085.046.204.046.358v1.055h-.445v-.962a.74.74 0 0 0-.027-.236.211.211 0 0 0-.09-.105.356.356 0 0 0-.35.008.305.305 0 0 0-.122.133.739.739 0 0 0-.044.297v.865h-.447V6.574h.425ZM22.997 6.57v1.479c0 .131-.008.236-.024.314a.661.661 0 0 1-.085.215c-.129.205-.36.308-.695.308-.466 0-.72-.176-.764-.528h.449c.03.14.139.21.324.21.142 0 .24-.04.297-.12.044-.063.066-.165.066-.307l.002-.208a.559.559 0 0 1-.499.265.625.625 0 0 1-.503-.222c-.127-.15-.19-.351-.19-.606 0-.254.063-.458.19-.612a.645.645 0 0 1 .522-.238c.111 0 .205.02.28.063a.606.606 0 0 1 .206.21V6.57h.424Zm-.81.316a.314.314 0 0 0-.285.157.596.596 0 0 0-.078.32c0 .164.038.288.114.374a.323.323 0 0 0 .257.113.327.327 0 0 0 .3-.167.629.629 0 0 0 .076-.326c0-.158-.04-.28-.118-.366a.345.345 0 0 0-.266-.105ZM16.985 14.796l1.81.633a.374.374 0 0 0 .435-.145l.407-.604a.302.302 0 0 0-.249-.468h-2.304a.3.3 0 0 0-.1.584ZM10.65 14.813h2.625v-.6h-2.626a.3.3 0 0 0 0 .6ZM10.65 15.788h.375a.3.3 0 0 0 0-.601h-.375a.3.3 0 0 0 0 .6ZM20.325 16.65c-.585 0-1.161.139-1.68.406l-.72-1.156h-5.85l-.72 1.156A3.676 3.676 0 1 0 9.675 24a3.677 3.677 0 0 0 2.19-6.628l.403-.648 1.965 2.923a.976.976 0 1 0 1.65 1.015h.783A3.674 3.674 0 0 0 24 20.325a3.676 3.676 0 0 0-3.675-3.676Zm-7.575 3.675a3.076 3.076 0 0 1-6.15 0 3.077 3.077 0 0 1 4.437-2.758l-1.618 2.6a.3.3 0 1 0 .51.317l1.618-2.6a3.077 3.077 0 0 1 1.203 2.441Zm2.518-1.013a.976.976 0 0 0-.537 0l-1.89-2.812h4.319l-1.892 2.812Zm1.39.75h-.701a.965.965 0 0 0-.19-.415l1.964-2.922.404.647a3.68 3.68 0 0 0-1.476 2.69Zm1.795-2.177 1.355 2.177h-2.547a3.072 3.072 0 0 1 1.192-2.177Zm1.872 5.515a3.077 3.077 0 0 1-3.058-2.738h2.562a.6.6 0 1 0 .496-.938l-.02.001-1.343-2.158a3.075 3.075 0 1 1 1.363 5.833Z" fill="#fff"/></g><defs><clipPath id="a"><path fill="#fff" d="M0 0h30v30H0z"/></clipPath></defs></svg>
